symbols/web/blur_circular/materialsymbolsoutlined/blur_circular_wght600grad200_24px.svg

<svg xmlns="http://www.w3.org/2000/svg" height="24" width="24"><path d="M9.975 11.15q.475 0 .825-.35t.35-.825q0-.5-.35-.838-.35-.337-.825-.337-.5 0-.838.337-.337.338-.337.838 0 .475.337.825.338.35.838.35Zm0 4.05q.475 0 .825-.337.35-.338.35-.838 0-.475-.35-.825t-.825-.35q-.5 0-.838.35-.337.35-.337.825 0 .5.337.838.338.337.838.337Zm-3.05-4.625q.275 0 .45-.175t.175-.425q0-.275-.175-.45t-.45-.175q-.25 0-.425.175t-.175.45q0 .25.175.425t.425.175Zm3.05 7.1q.25 0 .425-.175t.175-.425q0-.275-.175-.45t-.425-.175q-.275 0-.45.175t-.175.45q0 .25.175.425t.45.175Zm-3.05-3.025q.275 0 .45-.175t.175-.45q0-.25-.175-.425t-.45-.175q-.25 0-.425.175t-.175.425q0 .275.175.45t.425.175Zm3.05-7.1q.25 0 .425-.175t.175-.45q0-.25-.175-.425t-.425-.175q-.275 0-.45.175t-.175.425q0 .275.175.45t.45.175Zm4.05 3.6q.5 0 .838-.35.337-.35.337-.825 0-.5-.337-.838-.338-.337-.838-.337-.475 0-.825.337-.35.338-.35.838 0 .475.35.825t.825.35Zm0-3.6q.275 0 .45-.175t.175-.45q0-.25-.175-.425t-.45-.175q-.25 0-.425.175t-.175.425q0 .275.175.45t.425.175Zm3.05 7.1q.25 0 .425-.175t.175-.45q0-.25-.175-.425t-.425-.175q-.275 0-.45.175t-.175.425q0 .275.175.45t.45.175Zm0-4.075q.25 0 .425-.175t.175-.425q0-.275-.175-.45t-.425-.175q-.275 0-.45.175t-.175.45q0 .25.175.425t.45.175ZM12 22.85q-2.25 0-4.225-.85-1.975-.85-3.45-2.325T2 16.225Q1.15 14.25 1.15 12q0-2.25.85-4.225.85-1.975 2.325-3.45T7.775 2Q9.75 1.15 12 1.15q2.25 0 4.225.85 1.975.85 3.45 2.325T22 7.775q.85 1.975.85 4.225 0 2.25-.85 4.225-.85 1.975-2.325 3.45T16.225 22q-1.975.85-4.225.85Zm0-2.875q3.325 0 5.65-2.325T19.975 12q0-3.325-2.325-5.65T12 4.025q-3.325 0-5.65 2.325T4.025 12q0 3.325 2.325 5.65T12 19.975Zm2.025-2.3q.275 0 .45-.175t.175-.425q0-.275-.175-.45t-.45-.175q-.25 0-.425.175t-.175.45q0 .25.175.425t.425.175Zm0-2.475q.5 0 .838-.337.337-.338.337-.838 0-.475-.337-.825-.338-.35-.838-.35-.475 0-.825.35t-.35.825q0 .5.35.838.35.337.825.337ZM12 12Z"/></svg>

<svg xmlns="http://www.w3.org/2000/svg" height="24" width="24"><path d="M9.975 11.15Q10.45 11.15 10.8 10.8Q11.15 10.45 11.15 9.975Q11.15 9.475 10.8 9.137Q10.45 8.8 9.975 8.8Q9.475 8.8 9.137 9.137Q8.8 9.475 8.8 9.975Q8.8 10.45 9.137 10.8Q9.475 11.15 9.975 11.15ZM9.975 15.2Q10.45 15.2 10.8 14.863Q11.15 14.525 11.15 14.025Q11.15 13.55 10.8 13.2Q10.45 12.85 9.975 12.85Q9.475 12.85 9.137 13.2Q8.8 13.55 8.8 14.025Q8.8 14.525 9.137 14.863Q9.475 15.2 9.975 15.2ZM6.925 10.575Q7.2 10.575 7.375 10.4Q7.55 10.225 7.55 9.975Q7.55 9.7 7.375 9.525Q7.2 9.35 6.925 9.35Q6.675 9.35 6.5 9.525Q6.325 9.7 6.325 9.975Q6.325 10.225 6.5 10.4Q6.675 10.575 6.925 10.575ZM9.975 17.675Q10.225 17.675 10.4 17.5Q10.575 17.325 10.575 17.075Q10.575 16.8 10.4 16.625Q10.225 16.45 9.975 16.45Q9.7 16.45 9.525 16.625Q9.35 16.8 9.35 17.075Q9.35 17.325 9.525 17.5Q9.7 17.675 9.975 17.675ZM6.925 14.65Q7.2 14.65 7.375 14.475Q7.55 14.3 7.55 14.025Q7.55 13.775 7.375 13.6Q7.2 13.425 6.925 13.425Q6.675 13.425 6.5 13.6Q6.325 13.775 6.325 14.025Q6.325 14.3 6.5 14.475Q6.675 14.65 6.925 14.65ZM9.975 7.55Q10.225 7.55 10.4 7.375Q10.575 7.2 10.575 6.925Q10.575 6.675 10.4 6.5Q10.225 6.325 9.975 6.325Q9.7 6.325 9.525 6.5Q9.35 6.675 9.35 6.925Q9.35 7.2 9.525 7.375Q9.7 7.55 9.975 7.55ZM14.025 11.15Q14.525 11.15 14.863 10.8Q15.2 10.45 15.2 9.975Q15.2 9.475 14.863 9.137Q14.525 8.8 14.025 8.8Q13.55 8.8 13.2 9.137Q12.85 9.475 12.85 9.975Q12.85 10.45 13.2 10.8Q13.55 11.15 14.025 11.15ZM14.025 7.55Q14.3 7.55 14.475 7.375Q14.65 7.2 14.65 6.925Q14.65 6.675 14.475 6.5Q14.3 6.325 14.025 6.325Q13.775 6.325 13.6 6.5Q13.425 6.675 13.425 6.925Q13.425 7.2 13.6 7.375Q13.775 7.55 14.025 7.55ZM17.075 14.65Q17.325 14.65 17.5 14.475Q17.675 14.3 17.675 14.025Q17.675 13.775 17.5 13.6Q17.325 13.425 17.075 13.425Q16.8 13.425 16.625 13.6Q16.45 13.775 16.45 14.025Q16.45 14.3 16.625 14.475Q16.8 14.65 17.075 14.65ZM17.075 10.575Q17.325 10.575 17.5 10.4Q17.675 10.225 17.675 9.975Q17.675 9.7 17.5 9.525Q17.325 9.35 17.075 9.35Q16.8 9.35 16.625 9.525Q16.45 9.7 16.45 9.975Q16.45 10.225 16.625 10.4Q16.8 10.575 17.075 10.575ZM12 22.85Q9.75 22.85 7.775 22Q5.8 21.15 4.325 19.675Q2.85 18.2 2 16.225Q1.15 14.25 1.15 12Q1.15 9.75 2 7.775Q2.85 5.8 4.325 4.325Q5.8 2.85 7.775 2Q9.75 1.15 12 1.15Q14.25 1.15 16.225 2Q18.2 2.85 19.675 4.325Q21.15 5.8 22 7.775Q22.85 9.75 22.85 12Q22.85 14.25 22 16.225Q21.15 18.2 19.675 19.675Q18.2 21.15 16.225 22Q14.25 22.85 12 22.85ZM12 19.975Q15.325 19.975 17.65 17.65Q19.975 15.325 19.975 12Q19.975 8.675 17.65 6.35Q15.325 4.025 12 4.025Q8.675 4.025 6.35 6.35Q4.025 8.675 4.025 12Q4.025 15.325 6.35 17.65Q8.675 19.975 12 19.975ZM14.025 17.675Q14.3 17.675 14.475 17.5Q14.65 17.325 14.65 17.075Q14.65 16.8 14.475 16.625Q14.3 16.45 14.025 16.45Q13.775 16.45 13.6 16.625Q13.425 16.8 13.425 17.075Q13.425 17.325 13.6 17.5Q13.775 17.675 14.025 17.675ZM14.025 15.2Q14.525 15.2 14.863 14.863Q15.2 14.525 15.2 14.025Q15.2 13.55 14.863 13.2Q14.525 12.85 14.025 12.85Q13.55 12.85 13.2 13.2Q12.85 13.55 12.85 14.025Q12.85 14.525 13.2 14.863Q13.55 15.2 14.025 15.2ZM12 12Q12 12 12 12Q12 12 12 12Q12 12 12 12Q12 12 12 12Q12 12 12 12Q12 12 12 12Q12 12 12 12Q12 12 12 12Z"/></svg>
